X:215
T:
R:polska
S:Efter f. skolläraren Karl Enderberg, hemmansägaren Lars Lagergren från Likmide i Hemse m. fl.
O:Gotland, Hemse
M:3/4
L:1/16
K:C
L[G,Ec]4 L[G,DB]4 L[G,Ec]4|d2c2 B2c2 d2e2|
fgfe f2g2 a2B2|cBce dBcA G2AB|c4 BGBG c4|d2dc B2c2 d2e2|
fgfe f2g2 a2f2|edcB d4 c4::e2d2 c2c2 e2e2|d2c2 B2B2 d4|
e2d2 c2c2 e2e2|d2c2 B2A2 GFED|C2cB c2cB c2e2|
G2G^F G2G2 A2B2|c2cB A2AG F2FE|D2DC CB,CA, G,4|
c2cB c2cB c2e2|G2G^F G2G2 A2B2|c2ec g2e2 a2f2|edcB d4 c4:|

